X:1
T:Missa a 4
T:José de Torres y Martinez Bravo [1665-1738]
T:From a manuscript dated 1732 in the Música Colonial archive in Guatemala Cathedral, No 9-007
T:Missa a 4
T:[ad omnem tonum] 1. Kyrie
C:José de Torres y Martinez Bravo [1665-1738]
Z:From a manuscript dated 1732 in the Música Colonial
Z:archive in Guatemala Cathedral, No 9-007
%%score [ 1 2 3 4 ]
L:1/8
M:2/2
K:C
V:1 treble nm="Soprano" snm="S."
V:2 treble nm="Alto" snm="A."
V:3 treble-8 transpose=-12 nm="Tenor" snm="T."
V:4 bass nm="Bass" snm="B."
V:1
 c4 c2 c2 | _B4 A=B c2- | c2 BA BcdB | ^c2 d4 c2 | d4 z4 | z2 _B4 F2 | G4 A4- | A4 G4 | A2 c4 c2 | %9
w: Ky- ri- e|e- * * *||* * lei-|son,|ky- ri-|e e-|* lei-|son, ky- ri-|
 A4 c4 | B4 A4 | z2 G4 G2 | ^F2 F2 G8 F4 ||[M:2/2] z8 | z8 | z8 | z8 | z2 c2 c2 d2- | d2 B4 c2- | %19
w: e e-|lei- son,|ky- ri-|e e- lei- son.|||||Chris- te e-||
 c2 A2 G4- | G4 ^F4 | G2 B2 G2 A2 | B2 A4 G2- | G2 FE F4 | E16 ||[M:2/2] z4 z2 d2 | d2 e2 d4 | %27
w: |* lei-|son, Chris- te e-||* * * lei-|son.|Ky-|ri- e e-|
 c3 B A4 | z2 G4 G2 | ^F4 G4 | E4 D2 dc | BA G2 GABG | A4 z4 | z8 | e4 f2 dA | c4 B4 | A4 A4 | %37
w: * lei- son,|ky- ri-|e e-|lei- son, e- *|* * * * * * lei-|son,||ky- ri- e _|e- lei-|son, ky-|
 G6 F2 | A6 G2 | ^F8 |] %40
w: ri- e|e- lei-|son.|
V:2
 E6 F2 | G4 CB,A,B, | CDEF GA_BG | A4 G4 | F2 F4 F2 | F8 | E4 C4 | D8 | F2 F4 A,2- | A,2 F3 EDC | %10
w: Ky- ri-|e e- * * *||* lei-|son, ky- ri-|e|e- lei-|son,|ky- ri- e|_ e- * * *|
 D6 C2 | B,4 C4 | D16 ||[M:2/2] z8 | z8 | z2 G4 G2 | A2 ^F2 G4 | EAFG A4 | G8 | F4 E4- | E4 D4 | %21
w: |* lei-|son.|||Chris- te|e- lei- son,|Chris- * * * te|e-||* lei-|
 B,4 E2 C2 | D4 E4- | E4 D4- | D4 ^C2 B,2 C8 ||[M:2/2] z8 | z2 G4 G2 | A3 G F2 E2 | D4 z4 | %29
w: son, Chris- te|e- *||* lei- * son.||Ky- ri-|e e- * lei-|son,|
 z4 z2 A2- | A2 G2 ^F4 | G2 E4 D2 | z2 A2 _B2 G2- | G2 D2 F4 | E4 D4 | G8 | D4 F4 | E4 D4- | %38
w: ky-|* ri- e|e- lei- son,|ky- ri- e|_ _ e-|lei- son,|ky-|ri- e|e- *|
 D4 ^C4 | D8 |] %40
w: * lei-|son.|
V:3
 A2 B2 c2 d2 | e2 de f4 | e2 dc d4 | e2 A2 e4 | A2 d4 d2 | d8 | c8- | c4 _B4 | A4 z2 c2 | c4 A4 | %10
w: Ky- * ri- *|e _ _ e-||* * lei-|son, ky- ri-|e|e-|* lei-|son, ky-|ri- e|
 f6 e2 | d4 c4- | c4 _B4 A8 ||[M:2/2] z4 e2 e2- | e2 d2 ef d2- | d2 c2 B2 c2 | ^c2 d4 B2 | c4 A4 | %18
w: e- *||* lei- son.|Chris- te|_ _ e- * *|* * lei- son,|Chris- te e-|lei- son,|
 B4 G4 | A4 B4 | A8 | G4 c2 A2 | F4 G4 | A8 | A16 ||[M:2/2] d2 d2 e2 d2- | d2 c4 B2 | A8 | %28
w: Chris- te|e- lei-|son,|Chris- te e-|lei- *||son.|Ky- ri- e e-|* * lei-|son,|
 z4 z2 c2- | c2 c2 B4 | c4 A4 | G2 G4 G2 | ^F4 G2 E2 | Dd d4 ed | ^c3 B A4 | z8 | z2 A4 c2- | %37
w: ky-|* ri- e|e- lei-|son, ky- ri-|e e- lei-|son, ky- ri- e _|e- lei- son,||ky- ri-|
 c2 G4 D2 | F4 E4 | D8 |] %40
w: * e e-|* lei-|son.|
V:4
 A,4 A,2 A,2 | G,4 F,4 | A,4 G,4- | G,2 F,2 E,4 | D,8 | _B,6 B,2 | _B,4 A,4 | ^F,4 G,4 | z4 F,4- | %9
w: Ky- ri- e|e- *||* * lei-|son,|ky- ri-|e e-|lei- son,|ky-|
 F,2 F,2 F,4 | D,4 F,4- | F,4 E,4 | D,16 ||[M:2/2] A,2 A,4 ^G,2 | A,2 B,2 G,4 | E,8 | z4 G,2 G,2 | %17
w: * ri e|e- *|* lei-|son.|Chris- te e-|* * lei-|son,|Chris- te|
 A,4 F,4 | G,4 E,4 | z4 E,4 | ^C,4 D,4 | E,8 | D,4 C,2 B,,2 | ^C,4 D,4 | A,,16 ||[M:2/2] z8 | z8 | %27
w: e- *|lei- son,|Chris-|te _|e-||lei- *|son.|||
 z2 C4 C2 | B,4 C4 | A,4 G,4 | z4 D,2 D,2 | E,3 D, C,2 B,,2 | A,,4 G,,2 G,,2 | B,,3 C, D,4 | %34
w: Ky- ri-|e e-|lei- son,|ky- ri-|e e- * *|lei- son, e-||
 A,4 D,4 | E,8 | F,2 D,4 A,,2 | C,4 _B,,4 | A,,8 | D,8 |] %40
w: lei- son,|ky-|ri- e e-||lei-|son.|

